medium.svg

<?xml version="1.0" encoding="UTF-8"?>
<svg width="24px" height="24px" viewBox="0 0 24 24" version="1.1" xmlns="http://www.w3.org/2000/svg" xmlns:xlink="http://www.w3.org/1999/xlink">
    <!-- Generator: Sketch 53.2 (72643) - https://sketchapp.com -->
    <title>medium</title>
    <desc>Created with Sketch.</desc>
    <g id="Page-1" stroke="none" stroke-width="1" fill="none" fill-rule="evenodd">
        <g id="Desktop-Copy" transform="translate(-216.000000, -1040.000000)" fill="#545454" fill-rule="nonzero">
            <g id="Group" transform="translate(84.000000, 1040.000000)">
                <g id="medium" transform="translate(132.000000, 0.000000)">
                    <path d="M0,0 L0,24 L24,24 L24,0 L0,0 Z M19.938,5.686 L18.651,6.92 C18.539728,7.00468819 18.4846446,7.14413027 18.508,7.282 L18.508,16.349 C18.4850385,16.4865403 18.5400806,16.6254928 18.651,16.71 L19.908,17.944 L19.908,18.215 L13.586,18.215 L13.586,17.945 L14.888,16.68 C15.016,16.552 15.016,16.515 15.016,16.32 L15.016,8.99 L11.396,18.185 L10.906,18.185 L6.69,8.99 L6.69,15.153 C6.6548556,15.4119539 6.74078114,15.6726807 6.923,15.86 L8.617,17.914 L8.617,18.185 L3.815,18.185 L3.815,17.915 L5.51,15.86 C5.69089412,15.6723698 5.77181941,15.4099195 5.728,15.153 L5.728,8.027 C5.74824662,7.8290123 5.67283618,7.63324234 5.525,7.5 L4.019,5.686 L4.019,5.416 L8.693,5.416 L12.306,13.339 L15.482,5.415 L19.938,5.415 L19.938,5.686 L19.938,5.686 Z" id="Shape"></path>
                </g>
            </g>
        </g>
    </g>
</svg>

<svg role="img" viewBox="0 0 24 24" xmlns="http://www.w3.org/2000/svg"><title>Medium icon</title><path d="M0 0v24h24V0H0zm19.938 5.686L18.651 6.92a.376.376 0 0 0-.143.362v9.067a.376.376 0 0 0 .143.361l1.257 1.234v.271h-6.322v-.27l1.302-1.265c.128-.128.128-.165.128-.36V8.99l-3.62 9.195h-.49L6.69 8.99v6.163a.85.85 0 0 0 .233.707l1.694 2.054v.271H3.815v-.27L5.51 15.86a.82.82 0 0 0 .218-.707V8.027a.624.624 0 0 0-.203-.527L4.019 5.686v-.27h4.674l3.613 7.923 3.176-7.924h4.456v.271z"/></svg>
